app/images/discord-logo-white.svg

<svg height="200" viewBox="0 0 175 200" width="175" xmlns="http://www.w3.org/2000/svg"><path d="m154.5 0c11.3 0 20.5 9.2 20.5 20.6v179.4l-21.5-19-12.1-11.2-12.8-11.9 5.3 18.5h-113.4c-11.3 0-20.5-9.2-20.5-20.6v-135.2c0-11.4 9.2-20.6 20.5-20.6zm-82.3 46.599169s-13.7-.299169-28.1 10.500831c0 0-14.4 26.1-14.4 58.3 0 0 8.4 14.5 30.5 15.2 0 0 3.7-4.5 6.7-8.3-12.4046512-3.711628-17.2724716-11.430178-17.492173-11.787173l-.007827-.012827s1 .7 2.8 1.7c.1.1.2.2.4.3.3.2.6.3.9.5 2.5 1.4 5 2.5 7.3 3.4 4.1 1.6 9 3.2 14.7 4.3 7.5 1.4 16.3 1.9 25.9.1 4.7-.8 9.5-2.2 14.5-4.3 3.5-1.3 7.4-3.2 11.5-5.9 0 0-5 8.2-18.1 11.9 3 3.8 6.6 8.1 6.6 8.1 22.1-.7 30.6-15.2 30.6-15.2 0-32.2-14.4-58.3-14.4-58.3-14.4-10.8-28.1-10.500831-28.1-10.500831l-1.4 1.600831c16.653061 5.0938776 24.573761 12.3948355 24.890119 12.6907122l.009881.0092878c-10.4-5.7-20.6-8.5-30.1-9.6-7.2-.8-14.1-.6-20.2.2-.6 0-1.1.1-1.7.2-3.5.3-12 1.6-22.7 6.3-3.7 1.7-5.9 2.9-5.9 2.9s8.3-7.9 26.3-13.1zm-2.8 37.300831c5.7 0 10.3 5 10.2 11.1 0 6.1-4.5 11.1-10.2 11.1-5.6 0-10.2-5-10.2-11.1s4.5-11.1 10.2-11.1zm36.5 0c5.7 0 10.2 5 10.2 11.1s-4.5 11.1-10.2 11.1c-5.6 0-10.2-5-10.2-11.1s4.5-11.1 10.2-11.1z" fill="#fff"/></svg>

<?xml version="1.0" encoding="UTF-8"?>
<svg width="175px" height="200px" viewBox="0 0 175 200" version="1.1" xmlns="http://www.w3.org/2000/svg" xmlns:xlink="http://www.w3.org/1999/xlink">
    <!-- Generator: Sketch 60.1 (88133) - https://sketch.com -->
    <title>Combined Shape</title>
    <desc>Created with Sketch.</desc>
    <g id="Page-1" stroke="none" stroke-width="1" fill="none" fill-rule="evenodd">
        <path d="M154.5,0 C165.8,0 175,9.2 175,20.6 L175,20.6 L175,200 L153.5,181 L141.4,169.8 L128.6,157.9 L133.9,176.4 L20.5,176.4 C9.2,176.4 0,167.2 0,155.8 L0,155.8 L0,20.6 C0,9.2 9.2,0 20.5,0 L20.5,0 Z M72.2,46.599169 C72.2,46.599169 58.5,46.3 44.1,57.1 C44.1,57.1 29.7,83.2 29.7,115.4 C29.7,115.4 38.1,129.9 60.2,130.6 C60.2,130.6 63.9,126.1 66.9,122.3 C54.4953488,118.588372 49.6275284,110.869822 49.407827,110.512827 L49.4,110.5 C49.4,110.5 50.4,111.2 52.2,112.2 C52.3,112.3 52.4,112.4 52.6,112.5 C52.9,112.7 53.2,112.8 53.5,113 C56,114.4 58.5,115.5 60.8,116.4 C64.9,118 69.8,119.6 75.5,120.7 C83,122.1 91.8,122.6 101.4,120.8 C106.1,120 110.9,118.6 115.9,116.5 C119.4,115.2 123.3,113.3 127.4,110.6 C127.4,110.6 122.4,118.8 109.3,122.5 C112.3,126.3 115.9,130.6 115.9,130.6 C138,129.9 146.5,115.4 146.5,115.4 C146.5,83.2 132.1,57.1 132.1,57.1 C117.7,46.3 104,46.599169 104,46.599169 L104,46.599169 L102.6,48.2 C119.253061,53.2938776 127.173761,60.5948355 127.490119,60.8907122 L127.5,60.9 C117.1,55.2 106.9,52.4 97.4,51.3 C90.2,50.5 83.3,50.7 77.2,51.5 C76.6,51.5 76.1,51.6 75.5,51.7 C72,52 63.5,53.3 52.8,58 C49.1,59.7 46.9,60.9 46.9,60.9 C46.9,60.9 55.2,53 73.2,47.8 L73.2,47.8 Z M69.4,83.9 C75.1,83.9 79.7,88.9 79.6,95 C79.6,101.1 75.1,106.1 69.4,106.1 C63.8,106.1 59.2,101.1 59.2,95 C59.2,88.9 63.7,83.9 69.4,83.9 Z M105.9,83.9 C111.6,83.9 116.1,88.9 116.1,95 C116.1,101.1 111.6,106.1 105.9,106.1 C100.3,106.1 95.7,101.1 95.7,95 C95.7,88.9 100.2,83.9 105.9,83.9 Z" id="Combined-Shape" fill="#FFFFFF" fill-rule="nonzero"></path>
    </g>
</svg>
